resources/haticons/SVG/facebook1.svg

<!-- Generated by IcoMoon.io -->
<svg version="1.1" xmlns="http://www.w3.org/2000/svg" width="24" height="24" viewBox="0 0 24 24">
<title>facebook1</title>
<path d="M17.25 0.225v3.825h-2.55s-1.875 0.075-1.875 1.575v3.15h4.275l-0.6 4.275h-3.675v10.95h-4.65v-10.95h-3.675v-4.275h3.675v-3.525s0-4.65 4.725-5.175c0.075 0 2.85-0.225 4.35 0.15z"></path>
</svg>

<svg xmlns="http://www.w3.org/2000/svg" width="24" height="24"><path d="M17.25.225V4.05H14.7s-1.875.075-1.875 1.575v3.15H17.1l-.6 4.275h-3.675V24h-4.65V13.05H4.5V8.775h3.675V5.25S8.175.6 12.9.075c.075 0 2.85-.225 4.35.15z"/></svg>
